Icons/com_adsk_sketchbook_SketchBook.svg

<svg viewBox="0 0 48 48" xmlns:xlink="http://www.w3.org/1999/xlink">
 <defs>
  <linearGradient id="0">
   <stop stop-opacity="0"/>
   <stop offset="1"/>
  </linearGradient>
  <linearGradient xlink:href="#0" id="1" gradientUnits="userSpaceOnUse" gradientTransform="translate(4e-7,-48)" y1="47" x2="0" y2="1"/>
  <clipPath id="2">
   <g transform="translate(0,-1004.3622)">
    <rect rx="4" y="1005.36" x="1" height="46" width="46" fill="#1890d0"/>
   </g>
  </clipPath>
  <clipPath id="3">
   <g transform="translate(0,-1004.3622)">
    <rect rx="4" y="1005.36" x="1" height="46" width="46" fill="#1890d0"/>
   </g>
  </clipPath>
 </defs>
 <g>
  <g transform="translate(0,-1004.3622)">
   <path d="m 5,1006.3622 c -2.216,0 -4,1.784 -4,4 l 0,37.25 c 0,2.216 1.784,4 4,4 l 38,0 c 2.216,0 4,-1.784 4,-4 l 0,-37.25 c 0,-2.216 -1.784,-4 -4,-4 l -38,0 z m -4,41.5 0,0.5 c 0,2.216 1.784,4 4,4 l 38,0 c 2.216,0 4,-1.784 4,-4 l 0,-0.5 c 0,2.216 -1.784,4 -4,4 l -38,0 c -2.216,0 -4,-1.784 -4,-4 z" opacity="0.02"/>
   <path d="m 1,1047.6122 0,0.25 c 0,2.216 1.784,4 4,4 l 38,0 c 2.216,0 4,-1.784 4,-4 l 0,-0.25 c 0,2.216 -1.784,4 -4,4 l -38,0 c -2.216,0 -4,-1.784 -4,-4 z" opacity="0.05"/>
   <rect width="46" height="46" x="1" y="1005.61" rx="4" opacity="0.1"/>
  </g>
 </g>
 <g>
  <g transform="translate(0,-1004.3622)">
   <rect rx="4" y="1005.36" x="1" height="46" width="46" fill="#e56447"/>
  </g>
 </g>
 <g>
  <rect transform="scale(1,-1)" width="46" height="46" x="1" y="-46.998" rx="4" opacity="0.1" fill="url(#1)"/>
 </g>
 <g>
  <g clip-path="url(#2)">
   <g opacity="0.1">
    <g>
     <path d="M 25.839844 13 C 23.667969 13.109375 21.238281 12.898438 19.421875 14.324219 C 16.445312 16.503906 16.496094 21.542969 19.503906 23.675781 C 21.609375 25.320312 24.332031 25.972656 26.375 27.714844 C 27.007812 28.691406 26.898438 30.144531 25.941406 30.878906 C 23.8125 31.929688 20.882812 31.367188 19.019531 30.269531 C 17.832031 30.3125 17.402344 31.789062 17 32.679688 C 17.089844 33.757812 18.359375 33.976562 19.1875 34.316406 C 21.488281 35.109375 24.039062 35.234375 26.390625 34.574219 C 28.878906 33.457031 31.132812 30.886719 30.992188 28.457031 C 31.039062 27.203125 30.398438 26.113281 29.617188 25.183594 C 28.667969 23.730469 27.035156 22.992188 25.546875 22.21875 C 24.316406 21.585938 23.019531 21.023438 21.949219 20.144531 C 20.84375 18.929688 21.691406 16.617188 23.375 16.507812 C 24.527344 16.300781 25.695312 16.535156 26.816406 16.792969 C 27.660156 17.503906 29.199219 17.382812 29.40625 16.167969 C 30.210938 15.429688 29.277344 14.722656 28.609375 14.382812 C 27.546875 13.933594 26.355469 14.109375 25.234375 14.078125 C 23.980469 14.152344 22.65625 14.519531 21.789062 15.472656 C 21.726562 16.359375 20.34375 17.777344 19.765625 16.519531 C 19.546875 15.230469 21.050781 14.703125 22.050781 14.4375 C 23.332031 14 24.597656 13.527344 25.839844 13 Z M 25.839844 13 "/>
    </g>
   </g>
  </g>
 </g>
 <g>
  <g clip-path="url(#3)">
   <g transform="translate(0,-1)">
    <g>
     <path d="M 25.839844 13 C 23.667969 13.109375 21.238281 12.898438 19.421875 14.324219 C 16.445312 16.503906 16.496094 21.542969 19.503906 23.675781 C 21.609375 25.320312 24.332031 25.972656 26.375 27.714844 C 27.007812 28.691406 26.898438 30.144531 25.941406 30.878906 C 23.8125 31.929688 20.882812 31.367188 19.019531 30.269531 C 17.832031 30.3125 17.402344 31.789062 17 32.679688 C 17.089844 33.757812 18.359375 33.976562 19.1875 34.316406 C 21.488281 35.109375 24.039062 35.234375 26.390625 34.574219 C 28.878906 33.457031 31.132812 30.886719 30.992188 28.457031 C 31.039062 27.203125 30.398438 26.113281 29.617188 25.183594 C 28.667969 23.730469 27.035156 22.992188 25.546875 22.21875 C 24.316406 21.585938 23.019531 21.023438 21.949219 20.144531 C 20.84375 18.929688 21.691406 16.617188 23.375 16.507812 C 24.527344 16.300781 25.695312 16.535156 26.816406 16.792969 C 27.660156 17.503906 29.199219 17.382812 29.40625 16.167969 C 30.210938 15.429688 29.277344 14.722656 28.609375 14.382812 C 27.546875 13.933594 26.355469 14.109375 25.234375 14.078125 C 23.980469 14.152344 22.65625 14.519531 21.789062 15.472656 C 21.726562 16.359375 20.34375 17.777344 19.765625 16.519531 C 19.546875 15.230469 21.050781 14.703125 22.050781 14.4375 C 23.332031 14 24.597656 13.527344 25.839844 13 Z M 25.839844 13 " fill="#ffffff"/>
    </g>
   </g>
  </g>
 </g>
 <g>
  <g transform="translate(0,-1004.3622)">
   <path d="m 1,1043.3622 0,4 c 0,2.216 1.784,4 4,4 l 38,0 c 2.216,0 4,-1.784 4,-4 l 0,-4 c 0,2.216 -1.784,4 -4,4 l -38,0 c -2.216,0 -4,-1.784 -4,-4 z" opacity="0.1"/>
  </g>
 </g>
</svg>

<svg viewBox="0 0 48 48"><defs><linearGradient id="linearGradient3764" x1="1" x2="47" gradientUnits="userSpaceOnUse" gradientTransform="translate(-48.000001,0.00221467)"><stop stop-color="#e35635" stop-opacity="1"/><stop offset="1" stop-color="#e56447" stop-opacity="1"/></linearGradient><clipPath id="clipPath-363502482"><g transform="translate(0,-1004.3622)"><rect rx="4" y="1005.36" x="1" height="46" width="46" fill="#1890d0"/></g></clipPath><clipPath id="clipPath-376692298"><g transform="translate(0,-1004.3622)"><rect rx="4" y="1005.36" x="1" height="46" width="46" fill="#1890d0"/></g></clipPath></defs><g><path d="m 1 43 l 0 0.25 c 0 2.216 1.784 4 4 4 l 38 0 c 2.216 0 4 -1.784 4 -4 l 0 -0.25 c 0 2.216 -1.784 4 -4 4 l -38 0 c -2.216 0 -4 -1.784 -4 -4 z m 0 0.5 l 0 0.5 c 0 2.216 1.784 4 4 4 l 38 0 c 2.216 0 4 -1.784 4 -4 l 0 -0.5 c 0 2.216 -1.784 4 -4 4 l -38 0 c -2.216 0 -4 -1.784 -4 -4 z" opacity="0.02"/><path d="m 1 43.25 l 0 0.25 c 0 2.216 1.784 4 4 4 l 38 0 c 2.216 0 4 -1.784 4 -4 l 0 -0.25 c 0 2.216 -1.784 4 -4 4 l -38 0 c -2.216 0 -4 -1.784 -4 -4 z" opacity="0.05"/><path d="m 1 43 l 0 0.25 c 0 2.216 1.784 4 4 4 l 38 0 c 2.216 0 4 -1.784 4 -4 l 0 -0.25 c 0 2.216 -1.784 4 -4 4 l -38 0 c -2.216 0 -4 -1.784 -4 -4 z" opacity="0.1"/></g><g><rect width="46" height="46" x="-47" y="1" rx="4" transform="matrix(0,-1,1,0,0,0)" fill="url(#linearGradient3764)" fill-opacity="1"/></g><g><g clip-path="url(#clipPath-363502482)"><g opacity="0.1"><!-- color: #e56447 --><g><path d="m 25.84 13 c -2.172 0.109 -4.602 -0.102 -6.418 1.324 c -2.977 2.18 -2.926 7.219 0.082 9.352 c 2.105 1.645 4.828 2.297 6.871 4.04 c 0.633 0.977 0.523 2.43 -0.434 3.164 c -2.129 1.051 -5.059 0.488 -6.922 -0.609 c -1.188 0.043 -1.617 1.52 -2.02 2.41 c 0.09 1.078 1.359 1.297 2.188 1.637 c 2.301 0.793 4.852 0.918 7.203 0.258 c 2.488 -1.117 4.742 -3.688 4.602 -6.117 c 0.047 -1.254 -0.594 -2.344 -1.375 -3.273 c -0.949 -1.453 -2.582 -2.191 -4.07 -2.965 c -1.23 -0.633 -2.527 -1.195 -3.598 -2.074 c -1.105 -1.215 -0.258 -3.527 1.426 -3.637 c 1.152 -0.207 2.32 0.027 3.441 0.285 c 0.844 0.711 2.383 0.59 2.59 -0.625 c 0.805 -0.738 -0.129 -1.445 -0.797 -1.785 c -1.063 -0.449 -2.254 -0.273 -3.375 -0.305 c -1.254 0.074 -2.578 0.441 -3.445 1.395 c -0.063 0.887 -1.445 2.305 -2.023 1.047 c -0.219 -1.289 1.285 -1.816 2.285 -2.082 c 1.281 -0.438 2.547 -0.91 3.789 -1.438 m 0 0" fill="#000"/></g></g></g></g><g><g clip-path="url(#clipPath-376692298)"><g transform="translate(0,-1)"><!-- color: #e56447 --><g><path d="m 25.84 13 c -2.172 0.109 -4.602 -0.102 -6.418 1.324 c -2.977 2.18 -2.926 7.219 0.082 9.352 c 2.105 1.645 4.828 2.297 6.871 4.04 c 0.633 0.977 0.523 2.43 -0.434 3.164 c -2.129 1.051 -5.059 0.488 -6.922 -0.609 c -1.188 0.043 -1.617 1.52 -2.02 2.41 c 0.09 1.078 1.359 1.297 2.188 1.637 c 2.301 0.793 4.852 0.918 7.203 0.258 c 2.488 -1.117 4.742 -3.688 4.602 -6.117 c 0.047 -1.254 -0.594 -2.344 -1.375 -3.273 c -0.949 -1.453 -2.582 -2.191 -4.07 -2.965 c -1.23 -0.633 -2.527 -1.195 -3.598 -2.074 c -1.105 -1.215 -0.258 -3.527 1.426 -3.637 c 1.152 -0.207 2.32 0.027 3.441 0.285 c 0.844 0.711 2.383 0.59 2.59 -0.625 c 0.805 -0.738 -0.129 -1.445 -0.797 -1.785 c -1.063 -0.449 -2.254 -0.273 -3.375 -0.305 c -1.254 0.074 -2.578 0.441 -3.445 1.395 c -0.063 0.887 -1.445 2.305 -2.023 1.047 c -0.219 -1.289 1.285 -1.816 2.285 -2.082 c 1.281 -0.438 2.547 -0.91 3.789 -1.438 m 0 0" fill="#fff"/></g></g></g></g><g><g transform="translate(0,-1004.3622)"><path d="m 1 1043.36 0 4 c 0 2.216 1.784 4 4 4 l 38 0 c 2.216 0 4 -1.784 4 -4 l 0 -4 c 0 2.216 -1.784 4 -4 4 l -38 0 c -2.216 0 -4 -1.784 -4 -4 z" opacity="0.1"/></g></g></svg>
